;FLAVOR:Marlin
;TIME:4731
;Filament used: 2.25318m
;Layer height: 0.2
;MINX:44.2
;MINY:47.2
;MINZ:0.2
;MAXX:175.8
;MAXY:172.8
;MAXZ:1.6
;Generated with Cura_SteamEngine 4.13.0
M82 ;absolute extrusion mode
; Ender 3 Custom Start G-code
M140 S60 ; Set Heat Bed temperature
M104 S160; start warming extruder to 160
M190 S60 ; Wait for Heat Bed temperature
G28 ; Home all axes
G29 ; Auto bed-level (BL-Touch)
G92 E0 ; Reset Extruder
M104 S200 ; Set Extruder temperature
G1 X0.1 Y20 Z0.3 F5000.0 ; Move to start position
M109 S200 ; Wait for Extruder temperature
; G1 Z2.0 F3000 ; Move Z Axis up little to prevent scratching of Heat Bed
G1 X0.1 Y200.0 Z0.3 F1500.0 E15 ; Draw the first line
G1 X0.4 Y200.0 Z0.3 F5000.0 ; Move to side a little
G1 X0.4 Y20 Z0.3 F1500.0 E30 ; Draw the second line
G92 E0 ; Reset Extruder
G1 Z2.0 F3000 ; Move Z Axis up little to prevent scratching of Heat Bed
; End of custom start GCode
G92 E0
G92 E0
G1 F1500 E-6.5
;LAYER_COUNT:8
;LAYER:0
M107
;MESH:plate.stl
G0 F6000 X122.6 Y57.4 Z0.2
;TYPE:WALL-INNER
G1 F1500 E0
G1 F1200 X122.6 Y54.6 E0.09313
G1 X123.9 Y54.6 E0.13637
G1 X123.9 Y57.4 E0.22949
G1 X122.6 Y57.4 E0.27273
G0 F6000 X122.6 Y63.6
G1 F1200 X139.6 Y63.6 E0.83816
G1 X139.6 Y57.4 E1.04437
G1 X138.1 Y57.4 E1.09426
G1 X138.1 Y54.6 E1.18739
G1 X139.6 Y54.6 E1.23728
G1 X139.6 Y48.4 E1.44349
G1 X122.6 Y48.4 E2.00891
G1 X122.6 Y47.6 E2.03552
G1 X175.4 Y47.6 E3.79166
G1 X175.4 Y48.4 E3.81826
G1 X158.4 Y48.4 E4.38369
G1 X158.4 Y54.6 E4.5899
G1 X159.9 Y54.6 E4.63979
G1 X159.9 Y57.4 E4.73292
G1 X158.4 Y57.4 E4.78281
G1 X158.4 Y63.6 E4.98902
G1 X175.4 Y63.6 E5.55444
G1 X175.4 Y66.4 E5.64757
G1 X158.4 Y66.4 E6.21299
G1 X158.4 Y72.6 E6.41921
G1 X159.9 Y72.6 E6.4691
G1 X159.9 Y75.4 E6.56222
G1 X158.4 Y75.4 E6.61211
G1 X158.4 Y81.6 E6.81833
G1 X175.4 Y81.6 E7.38375
G1 X175.4 Y82.7 E7.42034
G1 X174.706 Y83.221 E7.4492
G1 X151.4 Y100.7 E8.41814
G1 X151.4 Y101.48 E8.44408
G1 X151.4 Y102.4 E8.47468
G1 X134.4 Y102.4 E9.0401
G1 X134.4 Y108.6 E9.24632
G1 X135.9 Y108.6 E9.29621
G1 X135.9 Y111.4 E9.38934
G1 X134.4 Y111.4 E9.43923
G1 X134.4 Y117.6 E9.64544
G1 X151.4 Y117.6 E10.21086
G1 X151.4 Y120.4 E10.30399
G1 X134.4 Y120.4 E10.86941
G1 X134.4 Y126.6 E11.07562
G1 X135.9 Y126.6 E11.12552
G1 X135.9 Y129.4 E11.21864
G1 X134.4 Y129.4 E11.26853
G1 X134.4 Y135.6 E11.47475
G1 X151.4 Y135.6 E12.04017
G1 X151.4 Y138.4 E12.1333
G1 X134.4 Y138.4 E12.69872
G1 X134.4 Y144.6 E12.90493
G1 X135.9 Y144.6 E12.95482
G1 X135.9 Y147.4 E13.04795
G1 X134.4 Y147.4 E13.09784
G1 X134.4 Y153.6 E13.30405
G1 X151.4 Y153.6 E13.86948
G1 X151.4 Y154.4 E13.89608
G1 X115.4 Y154.4 E15.09345
G1 X115.4 Y156.4 E15.15997
G1 X114.1 Y156.4 E15.20321
G1 X114.1 Y153.6 E15.29634
G1 X115.6 Y153.6 E15.34623
G1 X115.6 Y147.4 E15.55244
G1 X98.4 Y147.4 E16.12451
G1 X98.4 Y153.6 E16.33073
G1 X99.9 Y153.6 E16.38062
G1 X99.9 Y156.4 E16.47374
G1 X98.6 Y156.4 E16.51698
G1 X98.6 Y154.4 E16.5835
G1 X79.4 Y154.4 E17.2221
G1 X79.4 Y156.4 E17.28862
G1 X62.4 Y156.4 E17.85404
G1 X62.4 Y162.6 E18.06025
G1 X63.9 Y162.6 E18.11014
G1 X63.9 Y165.4 E18.20327
G1 X62.4 Y165.4 E18.25316
G1 X62.4 Y171.6 E18.45937
G1 X79.4 Y171.6 E19.0248
G1 X79.4 Y172.4 E19.05141
G1 X44.6 Y172.4 E20.20886
G1 X44.6 Y171.6 E20.23547
G1 X61.6 Y171.6 E20.80089
G1 X61.6 Y165.4 E21.0071
G1 X60.1 Y165.4 E21.05699
G1 X60.1 Y162.6 E21.15012
G1 X61.6 Y162.6 E21.20001
G1 X61.6 Y156.4 E21.40622
G1 X44.6 Y156.4 E21.97165
G1 X44.6 Y153.6 E22.06477
G1 X61.6 Y153.6 E22.6302
G1 X61.6 Y147.4 E22.83641
G1 X60.1 Y147.4 E22.8863
G1 X60.1 Y144.6 E22.97943
G1 X61.6 Y144.6 E23.02932
G1 X61.6 Y138.4 E23.23553
G1 X44.6 Y138.4 E23.80095
G1 X44.6 Y135.6 E23.89408
G1 X61.6 Y135.6 E24.4595
G1 X61.6 Y129.4 E24.66572
G1 X60.1 Y129.4 E24.71561
G1 X60.1 Y126.6 E24.80873
G1 X61.6 Y126.6 E24.85862
G1 X61.6 Y120.4 E25.06484
G1 X44.6 Y120.4 E25.63026
G1 X44.6 Y117.6 E25.72339
G1 X61.6 Y117.6 E26.28881
G1 X61.6 Y111.4 E26.49502
G1 X60.1 Y111.4 E26.54491
G1 X60.1 Y108.6 E26.63804
G1 X61.6 Y108.6 E26.68793
G1 X61.6 Y102.4 E26.89415
G1 X44.6 Y102.4 E27.45957
G1 X44.6 Y99.6 E27.5527
G1 X61.6 Y99.6 E28.11812
G1 X61.6 Y93.4 E28.32433
G1 X60.1 Y93.4 E28.37422
G1 X60.1 Y90.6 E28.46735
G1 X61.6 Y90.6 E28.51724
G1 X61.6 Y84.4 E28.72345
G1 X44.6 Y84.4 E29.28887
G1 X44.6 Y83.6 E29.31548
G1 X98.025 Y83.6 E31.09241
G1 X122.4 Y81.569 E31.90593
G1 X122.4 Y81.6 E31.90696
G1 X123.38 Y81.6 E31.93956
G1 X139.6 Y81.6 E32.47904
G1 X139.6 Y75.4 E32.68525
G1 X138.1 Y75.4 E32.73514
G1 X138.1 Y72.6 E32.82827
G1 X139.6 Y72.6 E32.87816
G1 X139.6 Y66.4 E33.08437
G1 X122.6 Y66.4 E33.64979
G1 X122.6 Y63.6 E33.74292
G0 F6000 X122.329 Y81.303
G0 X122.202 Y81.99
G1 F1200 X115.348 Y82.561 E33.97168
G1 X115.018 Y83.322 E33.99926
G1 X114.477 Y82.633 E34.0284
G1 X97.952 Y84.01 E34.57993
G1 X80.01 Y84.01 E35.17668
G1 X80.01 Y90.99 E35.40884
G1 X81.51 Y90.99 E35.45873
G1 X81.51 Y93.01 E35.52591
G1 X80.01 Y93.01 E35.5758
G1 X80.01 Y99.99 E35.80796
G1 X97.01 Y99.99 E36.37338
G1 X97.01 Y102.01 E36.44057
G1 X80.01 Y102.01 E37.00599
G1 X80.01 Y108.99 E37.23815
G1 X81.51 Y108.99 E37.28804
G1 X81.51 Y111.01 E37.35522
G1 X80.01 Y111.01 E37.40511
G1 X80.01 Y117.99 E37.63727
G1 X97.99 Y117.99 E38.23528
G1 X97.99 Y111.01 E38.46744
G1 X97.01 Y111.01 E38.50004
G1 X96.49 Y111.01 E38.51733
G1 X96.49 Y108.99 E38.58452
G1 X97.01 Y108.99 E38.60181
G1 X97.01 Y110.99 E38.66833
G1 X97.99 Y110.99 E38.66997
G1 X116.01 Y110.99 E39.26931
G1 X116.99 Y110.99 E39.30191
G1 X116.99 Y108.99 E39.36843
G1 X117.51 Y108.99 E39.38572
G1 X117.51 Y111.01 E39.45291
G1 X116.99 Y111.01 E39.4702
G1 X116.01 Y111.01 E39.47184
G1 X116.01 Y117.99 E39.70399
G1 X133.99 Y117.99 E40.30201
G1 X133.99 Y111.01 E40.53417
G1 X132.49 Y111.01 E40.58406
G1 X132.49 Y108.99 E40.65124
G1 X133.99 Y108.99 E40.70113
G1 X133.99 Y102.01 E40.93329
G1 X116.99 Y102.01 E41.49871
G1 X116.99 Y101.99 E41.49938
G1 X133.99 Y101.99 E41.52772
G1 X150.33 Y101.99 E42.07119
G1 X151.01 Y101.48 E42.09946
G1 X151.01 Y102.01 E42.11709
G1 X150.33 Y102.01 E42.1397
G1 X134.01 Y102.01 E42.17204
G1 X134.01 Y108.99 E42.18368
G1 X135.51 Y108.99 E42.23357
G1 X135.51 Y111.01 E42.30075
G1 X134.01 Y111.01 E42.35064
G1 X134.01 Y117.99 E42.36228
G1 X151.01 Y117.99 E42.9277
G1 X151.01 Y120.01 E42.99489
G1 X134.01 Y120.01 E43.56031
G1 X134.01 Y126.99 E43.79247
G1 X135.51 Y126.99 E43.84236
G1 X135.51 Y129.01 E43.90954
G1 X134.01 Y129.01 E43.95943
G1 X134.01 Y135.99 E44.19159
G1 X151.01 Y135.99 E44.75701
G1 X151.01 Y138.01 E44.8242
G1 X134.01 Y138.01 E45.38962
G1 X134.01 Y144.99 E45.62177
G1 X135.51 Y144.99 E45.67166
G1 X135.51 Y147.01 E45.73885
G1 X134.01 Y147.01 E45.78874
G1 X134.01 Y153.99 E46.0209
G1 X151.01 Y153.99 E46.58632
G1 X151.01 Y154.01 E46.58698
G1 X134.01 Y154.01 E46.61533
G1 X115.99 Y154.01 E47.21467
G1 X115.01 Y154.01 E47.24727
G1 X115.01 Y156.01 E47.31379
G1 X114.49 Y156.01 E47.33108
G1 X114.49 Y153.99 E47.39827
G1 X115.01 Y153.99 E47.41556
G1 X115.99 Y153.99 E47.4172
G1 X115.99 Y147.01 E47.64935
G1 X98.01 Y147.01 E48.24737
G1 X98.01 Y153.99 E48.47953
G1 X98.99 Y153.99 E48.51212
G1 X99.51 Y153.99 E48.52942
G1 X99.51 Y156.01 E48.5966
G1 X98.99 Y156.01 E48.6139
G1 X98.99 Y154.01 E48.68042
G1 X98.01 Y154.01 E48.68205
G1 X79.99 Y154.01 E49.2814
G1 X79.01 Y154.01 E49.31399
G1 X79.01 Y156.01 E49.38052
G1 X62.01 Y156.01 E49.94594
G1 X62.01 Y162.99 E50.17809
G1 X63.51 Y162.99 E50.22798
G1 X63.51 Y165.01 E50.29517
G1 X62.01 Y165.01 E50.34506
G1 X62.01 Y171.99 E50.57721
G1 X79.01 Y171.99 E51.14264
G1 X79.01 Y172.01 E51.1433
G1 X62.01 Y172.01 E51.17164
G1 X44.99 Y172.01 E51.73773
G1 X44.99 Y171.99 E51.7384
G1 X61.99 Y171.99 E51.76642
G1 X61.99 Y165.01 E51.77806
G1 X60.49 Y165.01 E51.82795
G1 X60.49 Y162.99 E51.89514
G1 X61.99 Y162.99 E51.94503
G1 X61.99 Y156.01 E51.95666
G1 X44.99 Y156.01 E52.52208
G1 X44.99 Y153.99 E52.58927
G1 X61.99 Y153.99 E53.15469
G1 X61.99 Y147.01 E53.38685
G1 X60.49 Y147.01 E53.43674
G1 X60.49 Y144.99 E53.50392
G1 X61.99 Y144.99 E53.55381
G1 X61.99 Y138.01 E53.78597
G1 X44.99 Y138.01 E54.35139
G1 X44.99 Y135.99 E54.41858
G1 X61.99 Y135.99 E54.984
G1 X61.99 Y129.01 E55.21616
G1 X60.49 Y129.01 E55.26605
G1 X60.49 Y126.99 E55.33323
G1 X61.99 Y126.99 E55.38312
G1 X61.99 Y120.01 E55.61528
G1 X44.99 Y120.01 E56.1807
G1 X44.99 Y117.99 E56.24789
G1 X61.99 Y117.99 E56.81331
G1 X61.99 Y111.01 E57.04546
G1 X60.49 Y111.01 E57.09535
G1 X60.49 Y108.99 E57.16254
G1 X61.99 Y108.99 E57.21243
G1 X61.99 Y102.01 E57.44458
G1 X44.99 Y102.01 E58.01001
G1 X44.99 Y99.99 E58.07719
G1 X61.99 Y99.99 E58.64262
G1 X61.99 Y93.01 E58.87477
G1 X60.49 Y93.01 E58.92466
G1 X60.49 Y90.99 E58.99185
G1 X61.99 Y90.99 E59.04174
G1 X61.99 Y84.01 E59.27389
G1 X44.99 Y84.01 E59.83931
G1 X44.99 Y83.99 E59.83998
G1 X61.99 Y83.99 E59.86832
G1 X80.01 Y83.99 E60.46767
G1 X98.041 Y83.99 E60.55236
G1 X114.476 Y82.622 E60.62114
G1 X115.346 Y82.549 E60.65018
G1 X122.048 Y81.99 E60.65692
G1 X122.202 Y81.99 E60.66204
G1 F1500 E54.16204
G0 F6000 X122.46 Y82.64
G0 X116.339 Y101.056
G0 X116.328 Y110.328
G0 X98.672 Y111.672
G0 X97.328 Y117.328
G0 X98.928 Y118.572
G0 X98.928 Y119.428
G0 X80.672 Y120.672
G0 X80.672 Y126.328
G0 X82.172 Y129.672
G0 X80.672 Y129.672
G0 X80.672 Y135.328
G0 X98.928 Y136.572
G0 X98.928 Y137.428
G0 X80.672 Y138.672
G0 X79.328 Y144.328
G0 X77.828 Y147.672
G0 X79.328 Y147.672
G0 X79.328 Y153.328
G0 X78.428 Y155.428
G0 X62.672 Y156.672
G0 X62.672 Y162.328
G0 X63.11 Y163.39
G1 F1500 E60.66204
G1 F1200 X63.11 Y164.61 E60.70262
G1 X60.89 Y164.61 E60.77646
G1 X60.89 Y163.39 E60.81704
G1 X63.11 Y163.39 E60.89087
G1 F1500 E54.39087
G0 F6000 X62.672 Y162.328
G0 X62.672 Y156.672
G0 X78.428 Y155.428
G0 X79.328 Y153.328
G0 X79.328 Y147.672
G0 X77.828 Y144.328
G0 X79.328 Y144.328
G0 X79.328 Y138.672
G0 X98.928 Y137.428
G0 X98.928 Y136.572
G0 X79.038 Y136.564
G0 X80.672 Y129.672
G0 X82.172 Y126.328
G0 X80.672 Y126.328
G0 X80.672 Y120.672
G0 X98.928 Y119.428
G0 X98.928 Y118.572
G0 X97.328 Y111.672
G0 X97.671 Y84.697
G0 X122.329 Y81.303
G0 X122.6 Y63.2
G1 F1500 E60.89087
G0 F6000 X122.8 Y63.2
;TYPE:WALL-OUTER
G1 F1200 X139.2 Y63.2 E61.43634
G1 X139.2 Y57.8 E61.61594
G1 X137.7 Y57.8 E61.66583
G1 X137.7 Y54.2 E61.78557
G1 X139.2 Y54.2 E61.83546
G1 X139.2 Y48.8 E62.01507
G1 X122.8 Y48.8 E62.56053
G1 X122.8 Y54.2 E62.74014
G1 X124.3 Y54.2 E62.79003
G1 X124.3 Y57.8 E62.90976
G1 X122.8 Y57.8 E62.95965
G1 X122.8 Y63.2 E63.13926
G1 F1500 E56.63926
G0 F6000 X122.6 Y63.2
G0 X123.572 Y65.428
G0 X157.328 Y66.672
G0 X157.328 Y72.328
G0 X156.89 Y73.39
;TYPE:WALL-INNER
G1 F1500 E63.13926
G1 F1200 X159.11 Y73.39 E63.2131
G1 X159.11 Y74.61 E63.25367
G1 X156.89 Y74.61 E63.32751
G1 X156.89 Y73.39 E63.36809
G0 F6000 X158.01 Y72.99
G1 F1200 X159.51 Y72.99 E63.41798
G1 X159.51 Y75.01 E63.48516
G1 X158.01 Y75.01 E63.53505
G1 X158.01 Y81.99 E63.76721
G1 X175.01 Y81.99 E64.33263
G1 X175.01 Y82.505 E64.34976
G1 X174.905 Y82.584 E64.35413
G1 X174.715 Y82.01 E64.36527
G1 X158.01 Y82.01 E64.5746
G1 X139.99 Y82.01 E65.17395
G1 X123.374 Y82.01 E65.7266
G1 X123.38 Y81.99 E65.72729
G1 X139.99 Y81.99 E65.75489
G1 X139.99 Y75.01 E65.98705
G1 X138.49 Y75.01 E66.03694
G1 X138.49 Y72.99 E66.10412
G1 X139.99 Y72.99 E66.15401
G1 X139.99 Y66.01 E66.38617
G1 X122.99 Y66.01 E66.95159
G1 X122.99 Y63.99 E67.01878
G1 X139.99 Y63.99 E67.5842
G1 X139.99 Y57.01 E67.81635
G1 X138.49 Y57.01 E67.86624
G1 X138.49 Y54.99 E67.93343
G1 X139.99 Y54.99 E67.98332
G1 X139.99 Y48.01 E68.21547
G1 X122.99 Y48.01 E68.7809
G1 X122.99 Y47.99 E68.78156
G1 X139.99 Y47.99 E68.8099
G1 X158.01 Y47.99 E69.40925
G1 X175.01 Y47.99 E69.97467
G1 X175.01 Y48.01 E69.97534
G1 X158.01 Y48.01 E70.00368
G1 X158.01 Y54.99 E70.23584
G1 X159.51 Y54.99 E70.28573
G1 X159.51 Y57.01 E70.35291
G1 X158.01 Y57.01 E70.4028
G1 X158.01 Y63.99 E70.63496
G1 X175.01 Y63.99 E71.20038
G1 X175.01 Y66.01 E71.26757
G1 X158.01 Y66.01 E71.83299
G1 X158.01 Y72.99 E72.06514
G1 F1500 E65.56514
G0 F6000 X157.679 Y65.439
G0 X174.428 Y65.428
G0 X174.428 Y64.572
G0 X157.6 Y63.6
G1 F1500 E72.06514
G1 F1200 X157.6 Y57.4 E72.27136
G1 X156.1 Y57.4 E72.32125
G1 X156.1 Y54.6 E72.41438
G1 X157.6 Y54.6 E72.46427
G1 X157.6 Y48.4 E72.67048
G1 X140.4 Y48.4 E73.24255
G1 X140.4 Y54.6 E73.44877
G1 X141.9 Y54.6 E73.49866
G1 X141.9 Y57.4 E73.59178
G1 X140.4 Y57.4 E73.64168
G1 X140.4 Y63.6 E73.84789
G1 X157.6 Y63.6 E74.41996
G1 F1500 E67.91996
G0 F6000 X140.672 Y63.328
G1 F1500 E74.41996
G0 F6000 X140.8 Y63.2
;TYPE:WALL-OUTER
G1 F1200 X157.2 Y63.2 E74.96543
G1 X157.2 Y57.8 E75.14503
G1 X155.7 Y57.8 E75.19492
G1 X155.7 Y54.2 E75.31466
G1 X157.2 Y54.2 E75.36455
G1 X157.2 Y48.8 E75.54415
G1 X140.8 Y48.8 E76.08962
G1 X140.8 Y54.2 E76.26923
G1 X142.3 Y54.2 E76.31912
G1 X142.3 Y57.8 E76.43885
G1 X140.8 Y57.8 E76.48874
G1 X140.8 Y63.2 E76.66835
G1 F1500 E70.16835
G0 F6000 X140.6 Y63.2
G0 X175.328 Y63.328
G0 X175.328 Y57.672
G0 X174.1 Y57.4
;TYPE:WALL-INNER
G1 F1500 E76.66835
G1 F1200 X174.1 Y54.6 E76.76148
G1 X175.4 Y54.6 E76.80471
G1 X175.4 Y57.4 E76.89784
G1 X174.1 Y57.4 E76.94108
G1 F1500 E70.44108
G0 F6000 X175.328 Y57.672
G0 X175.328 Y63.328
G0 X158.672 Y63.328
G1 F1500 E76.94108
G0 F6000 X158.8 Y63.2
;TYPE:WALL-OUTER
G1 F1200 X175.2 Y63.2 E77.48655
G1 X175.2 Y57.8 E77.66615
G1 X173.7 Y57.8 E77.71604
G1 X173.7 Y54.2 E77.83578
G1 X175.2 Y54.2 E77.88567
G1 X175.2 Y48.8 E78.06527
G1 X158.8 Y48.8 E78.61074
G1 X158.8 Y54.2 E78.79034
G1 X160.3 Y54.2 E78.84023
G1 X160.3 Y57.8 E78.95997
G1 X158.8 Y57.8 E79.00986
G1 X158.8 Y63.2 E79.18947
G0 F6000 X158.6 Y63.2
G0 X174.428 Y64.572
G0 X175.328 Y66.672
G0 X175.328 Y72.328
G0 X174.1 Y75.4
;TYPE:WALL-INNER
G1 F1200 X174.1 Y72.6 E79.28259
G1 X175.4 Y72.6 E79.32583
G1 X175.4 Y75.4 E79.41896
G1 X174.1 Y75.4 E79.4622
G1 F1500 E72.9622
G0 F6000 X175.328 Y75.672
G0 X175.328 Y81.328
G0 X158.672 Y81.328
G1 F1500 E79.4622
G0 F6000 X158.8 Y81.2
;TYPE:WALL-OUTER
G1 F1200 X175.2 Y81.2 E80.00766
G1 X175.2 Y75.8 E80.18727
G1 X173.7 Y75.8 E80.23716
G1 X173.7 Y72.2 E80.3569
G1 X175.2 Y72.2 E80.40679
G1 X175.2 Y66.8 E80.58639
G1 X158.8 Y66.8 E81.13186
G1 X158.8 Y72.2 E81.31146
G1 X160.3 Y72.2 E81.36135
G1 X160.3 Y75.8 E81.48109
G1 X158.8 Y75.8 E81.53098
G1 X158.8 Y81.2 E81.71058
G0 F6000 X158.6 Y81.2
G0 X157.571 Y81.303
G0 X140.01 Y81.99
;TYPE:WALL-INNER
G1 F1200 X157.99 Y81.99 E81.74593
G1 X157.99 Y75.01 E81.75757
G1 X156.49 Y75.01 E81.80746
G1 X156.49 Y72.99 E81.87464
G1 X157.99 Y72.99 E81.92453
G1 X157.99 Y66.01 E81.93617
G1 X140.01 Y66.01 E82.53419
G1 X140.01 Y72.99 E82.54582
G1 X141.51 Y72.99 E82.59571
G1 X141.51 Y75.01 E82.6629
G1 X140.01 Y75.01 E82.71279
G1 X140.01 Y81.99 E82.72443
G0 F6000 X140.4 Y81.6
G1 F1200 X157.6 Y81.6 E83.2965
G1 X157.6 Y75.4 E83.50271
G1 X156.1 Y75.4 E83.5526
G1 X156.1 Y72.6 E83.64573
G1 X157.6 Y72.6 E83.69562
G1 X157.6 Y66.4 E83.90183
G1 X140.4 Y66.4 E84.47391
G1 X140.4 Y72.6 E84.68012
G1 X141.9 Y72.6 E84.73001
G1 X141.9 Y75.4 E84.82314
G1 X140.4 Y75.4 E84.87303
G1 X140.4 Y81.6 E85.07924
G0 F6000 X140.8 Y81.2
;TYPE:WALL-OUTER
G1 F1200 X157.2 Y81.2 E85.62471
G1 X157.2 Y75.8 E85.80431
G1 X155.7 Y75.8 E85.8542
G1 X155.7 Y72.2 E85.97394
G1 X157.2 Y72.2 E86.02383
G1 X157.2 Y66.8 E86.20344
G1 X140.8 Y66.8 E86.7489
G1 X140.8 Y72.2 E86.92851
G1 X142.3 Y72.2 E86.9784
G1 X142.3 Y75.8 E87.09813
G1 X140.8 Y75.8 E87.14802
G1 X140.8 Y81.2 E87.32763
G0 F6000 X140.6 Y81.2
G0 X139.328 Y81.328
G0 X122.672 Y81.328
G0 X122.6 Y75.4
;TYPE:WALL-INNER
G1 F1200 X122.6 Y72.6 E87.42076
G1 X123.9 Y72.6 E87.464
G1 X123.9 Y75.4 E87.55712
G1 X122.6 Y75.4 E87.60036
G1 F1500 E81.10036
G0 F6000 X122.6 Y81.2
G1 F1500 E87.60036
G0 F6000 X122.8 Y81.2
;TYPE:WALL-OUTER
G1 F1200 X139.2 Y81.2 E88.14583
G1 X139.2 Y75.8 E88.32543
G1 X137.7 Y75.8 E88.37532
G1 X137.7 Y72.2 E88.49506
G1 X139.2 Y72.2 E88.54495
G1 X139.2 Y66.8 E88.72455
G1 X122.8 Y66.8 E89.27002
G1 X122.8 Y72.2 E89.44963
G1 X124.3 Y72.2 E89.49952
G1 X124.3 Y75.8 E89.61925
G1 X122.8 Y75.8 E89.66914
G1 X122.8 Y81.2 E89.84875
G0 F6000 X122.6 Y81.2
G0 X122.46 Y82.64
G0 X120.357 Y88.987
G0 X119.853 Y89.345
;TYPE:WALL-INNER
G1 F1200 X120.559 Y89.222 E89.87258
G1 X122.857 Y82.327 E90.11431
G1 X122.235 Y82.378 E90.13507
G1 X115.613 Y82.93 E90.35608
G1 X115.328 Y83.588 E90.37993
G1 X119.853 Y89.345 E90.62348
G0 F6000 X120.02 Y88.91
