;FLAVOR:Marlin
;TIME:6405
;Filament used: 3.22479m
;Layer height: 0.2
;MINX:38.7
;MINY:45.2
;MINZ:0.2
;MAXX:181.3
;MAXY:174.8
;MAXZ:1.6
;Generated with Cura_SteamEngine 4.13.0
M82 ;absolute extrusion mode
; Ender 3 Custom Start G-code
M140 S60 ; Set Heat Bed temperature
M104 S160; start warming extruder to 160
M190 S60 ; Wait for Heat Bed temperature
G28 ; Home all axes
G29 ; Auto bed-level (BL-Touch)
G92 E0 ; Reset Extruder
M104 S200 ; Set Extruder temperature
G1 X0.1 Y20 Z0.3 F5000.0 ; Move to start position
M109 S200 ; Wait for Extruder temperature
; G1 Z2.0 F3000 ; Move Z Axis up little to prevent scratching of Heat Bed
G1 X0.1 Y200.0 Z0.3 F1500.0 E15 ; Draw the first line
G1 X0.4 Y200.0 Z0.3 F5000.0 ; Move to side a little
G1 X0.4 Y20 Z0.3 F1500.0 E30 ; Draw the second line
G92 E0 ; Reset Extruder
G1 Z2.0 F3000 ; Move Z Axis up little to prevent scratching of Heat Bed
; End of custom start GCode
G92 E0
G92 E0
G1 F1500 E-6.5
;LAYER_COUNT:8
;LAYER:0
M107
;MESH:plate.stl
G0 F6000 X160.6 Y63.4 Z0.2
;TYPE:WALL-INNER
G1 F1500 E0
G1 F1200 X179.4 Y63.4 E0.62529
G1 X179.4 Y55.6 E0.88472
G1 X177.9 Y55.6 E0.93461
G1 X177.9 Y54.4 E0.97452
G1 X179.4 Y54.4 E1.02441
G1 X179.4 Y46.6 E1.28384
G1 X160.6 Y46.6 E1.90913
G1 X160.6 Y54.4 E2.16856
G1 X162.1 Y54.4 E2.21845
G1 X162.1 Y55.6 E2.25836
G1 X160.6 Y55.6 E2.30825
G1 X160.6 Y63.4 E2.56768
G0 F6000 X161 Y63
G1 F1200 X179 Y63 E3.16636
G1 X179 Y56 E3.39919
G1 X177.5 Y56 E3.44908
G1 X177.5 Y54 E3.5156
G1 X179 Y54 E3.56549
G1 X179 Y47 E3.79831
G1 X161 Y47 E4.39699
G1 X161 Y54 E4.62981
G1 X162.5 Y54 E4.6797
G1 X162.5 Y56 E4.74622
G1 X161 Y56 E4.79611
G1 X161 Y63 E5.02893
G0 F6000 X161.4 Y62.6
G1 F1200 X178.6 Y62.6 E5.60101
G1 X178.6 Y56.4 E5.80722
G1 X177.1 Y56.4 E5.85711
G1 X177.1 Y53.6 E5.95024
G1 X178.6 Y53.6 E6.00013
G1 X178.6 Y47.4 E6.20634
G1 X161.4 Y47.4 E6.77842
G1 X161.4 Y53.6 E6.98463
G1 X162.9 Y53.6 E7.03452
G1 X162.9 Y56.4 E7.12765
G1 X161.4 Y56.4 E7.17754
G1 X161.4 Y62.6 E7.38375
G0 F6000 X161.8 Y62.2
;TYPE:WALL-OUTER
G1 F1200 X178.2 Y62.2 E7.92922
G1 X178.2 Y56.8 E8.10882
G1 X176.7 Y56.8 E8.15871
G1 X176.7 Y53.2 E8.27845
G1 X178.2 Y53.2 E8.32834
G1 X178.2 Y47.8 E8.50794
G1 X161.8 Y47.8 E9.05341
G1 X161.8 Y53.2 E9.23301
G1 X163.3 Y53.2 E9.2829
G1 X163.3 Y56.8 E9.40264
G1 X161.8 Y56.8 E9.45253
G1 X161.8 Y62.2 E9.63214
G0 F6000 X161.5 Y62.2
G0 X159.823 Y62.384
G0 X141.6 Y63.4
;TYPE:WALL-INNER
G1 F1200 X160.4 Y63.4 E10.25743
G1 X160.4 Y55.6 E10.38747
G1 X158.9 Y55.6 E10.43736
G1 X158.9 Y54.4 E10.47727
G1 X160.4 Y54.4 E10.52716
G1 X160.4 Y46.6 E10.6572
G1 X141.6 Y46.6 E11.28249
G1 X141.6 Y54.4 E11.54192
G1 X143.1 Y54.4 E11.59181
G1 X143.1 Y55.6 E11.63172
G1 X141.6 Y55.6 E11.68161
G1 X141.6 Y63.4 E11.94104
G0 F6000 X142 Y63
G1 F1200 X160 Y63 E12.53972
G1 X160 Y56 E12.77254
G1 X158.5 Y56 E12.82243
G1 X158.5 Y54 E12.88895
G1 X160 Y54 E12.93884
G1 X160 Y47 E13.17166
G1 X142 Y47 E13.77035
G1 X142 Y54 E14.00317
G1 X143.5 Y54 E14.05306
G1 X143.5 Y56 E14.11958
G1 X142 Y56 E14.16947
G1 X142 Y63 E14.40229
G0 F6000 X142.4 Y62.6
G1 F1200 X159.6 Y62.6 E14.97436
G1 X159.6 Y56.4 E15.18058
G1 X158.1 Y56.4 E15.23047
G1 X158.1 Y53.6 E15.32359
G1 X159.6 Y53.6 E15.37348
G1 X159.6 Y47.4 E15.5797
G1 X142.4 Y47.4 E16.15177
G1 X142.4 Y53.6 E16.35798
G1 X143.9 Y53.6 E16.40787
G1 X143.9 Y56.4 E16.501
G1 X142.4 Y56.4 E16.55089
G1 X142.4 Y62.6 E16.75711
G0 F6000 X142.8 Y62.2
;TYPE:WALL-OUTER
G1 F1200 X159.2 Y62.2 E17.30257
G1 X159.2 Y56.8 E17.48218
G1 X157.7 Y56.8 E17.53207
G1 X157.7 Y53.2 E17.6518
G1 X159.2 Y53.2 E17.70169
G1 X159.2 Y47.8 E17.8813
G1 X142.8 Y47.8 E18.42677
G1 X142.8 Y53.2 E18.60637
G1 X144.3 Y53.2 E18.65626
G1 X144.3 Y56.8 E18.776
G1 X142.8 Y56.8 E18.82589
G1 X142.8 Y62.2 E19.00549
G0 F6000 X142.5 Y62.2
G0 X140.823 Y62.384
G0 X122.6 Y63.4
;TYPE:WALL-INNER
G1 F1200 X141.4 Y63.4 E19.63078
G1 X141.4 Y55.6 E19.76082
G1 X139.9 Y55.6 E19.81071
G1 X139.9 Y54.4 E19.85062
G1 X141.4 Y54.4 E19.90051
G1 X141.4 Y46.6 E20.03055
G1 X122.6 Y46.6 E20.65584
G1 X122.6 Y54.4 E20.91527
G1 X124.1 Y54.4 E20.96516
G1 X124.1 Y55.6 E21.00508
G1 X122.6 Y55.6 E21.05497
G1 X122.6 Y63.4 E21.31439
G0 F6000 X123 Y63
G1 F1200 X141 Y63 E21.91308
G1 X141 Y56 E22.1459
G1 X139.5 Y56 E22.19579
G1 X139.5 Y54 E22.26231
G1 X141 Y54 E22.3122
G1 X141 Y47 E22.54502
G1 X123 Y47 E23.1437
G1 X123 Y54 E23.37652
G1 X124.5 Y54 E23.42641
G1 X124.5 Y56 E23.49293
G1 X123 Y56 E23.54282
G1 X123 Y63 E23.77564
G0 F6000 X123.4 Y62.6
G1 F1200 X140.6 Y62.6 E24.34772
G1 X140.6 Y56.4 E24.55393
G1 X139.1 Y56.4 E24.60382
G1 X139.1 Y53.6 E24.69695
G1 X140.6 Y53.6 E24.74684
G1 X140.6 Y47.4 E24.95305
G1 X123.4 Y47.4 E25.52513
G1 X123.4 Y53.6 E25.73134
G1 X124.9 Y53.6 E25.78123
G1 X124.9 Y56.4 E25.87436
G1 X123.4 Y56.4 E25.92425
G1 X123.4 Y62.6 E26.13046
G0 F6000 X123.8 Y62.2
;TYPE:WALL-OUTER
G1 F1200 X140.2 Y62.2 E26.67593
G1 X140.2 Y56.8 E26.85553
G1 X138.7 Y56.8 E26.90542
G1 X138.7 Y53.2 E27.02516
G1 X140.2 Y53.2 E27.07505
G1 X140.2 Y47.8 E27.25466
G1 X123.8 Y47.8 E27.80012
G1 X123.8 Y53.2 E27.97973
G1 X125.3 Y53.2 E28.02962
G1 X125.3 Y56.8 E28.14935
G1 X123.8 Y56.8 E28.19924
G1 X123.8 Y62.2 E28.37885
G1 F1500 E21.87885
G0 F6000 X123.5 Y62.2
G0 X122.418 Y55.418
G0 X123.918 Y55.418
G0 X123.918 Y54.582
G0 X122.418 Y54.582
G0 X122.418 Y46.582
G0 X122.082 Y46.582
G0 X120.929 Y81.557
G0 X79.572 Y85.572
G0 X77.428 Y91.428
G0 X75.928 Y94.572
G0 X77.428 Y94.572
G0 X77.428 Y100.428
G0 X59.4 Y101.4
;TYPE:WALL-INNER
G1 F1500 E28.37885
G1 F1200 X59.4 Y93.6 E28.63828
G1 X57.9 Y93.6 E28.68817
G1 X57.9 Y92.4 E28.72808
G1 X59.4 Y92.4 E28.77797
G1 X59.4 Y84.6 E29.0374
G1 X40.6 Y84.6 E29.66269
G1 X40.6 Y92.4 E29.92212
G1 X42.1 Y92.4 E29.97201
G1 X42.1 Y93.6 E30.01192
G1 X40.6 Y93.6 E30.06181
G1 X40.6 Y101.4 E30.32124
G1 X59.4 Y101.4 E30.94653
G0 F6000 X59 Y101
G1 F1200 X59 Y94 E31.17935
G1 X57.5 Y94 E31.22924
G1 X57.5 Y92 E31.29576
G1 X59 Y92 E31.34565
G1 X59 Y85 E31.57847
G1 X41 Y85 E32.17716
G1 X41 Y92 E32.40998
G1 X42.5 Y92 E32.45987
G1 X42.5 Y94 E32.52639
G1 X41 Y94 E32.57628
G1 X41 Y101 E32.8091
G1 X59 Y101 E33.40778
G0 F6000 X58.6 Y100.6
G1 F1200 X58.6 Y94.4 E33.61399
G1 X57.1 Y94.4 E33.66388
G1 X57.1 Y91.6 E33.75701
G1 X58.6 Y91.6 E33.8069
G1 X58.6 Y85.4 E34.01311
G1 X41.4 Y85.4 E34.58519
G1 X41.4 Y91.6 E34.7914
G1 X42.9 Y91.6 E34.84129
G1 X42.9 Y94.4 E34.93442
G1 X41.4 Y94.4 E34.98431
G1 X41.4 Y100.6 E35.19052
G1 X58.6 Y100.6 E35.7626
G0 F6000 X58.2 Y100.2
;TYPE:WALL-OUTER
G1 F1200 X58.2 Y94.8 E35.9422
G1 X56.7 Y94.8 E35.99209
G1 X56.7 Y91.2 E36.11183
G1 X58.2 Y91.2 E36.16172
G1 X58.2 Y85.8 E36.34132
G1 X41.8 Y85.8 E36.88679
G1 X41.8 Y91.2 E37.06639
G1 X43.3 Y91.2 E37.11629
G1 X43.3 Y94.8 E37.23602
G1 X41.8 Y94.8 E37.28591
G1 X41.8 Y100.2 E37.46552
G1 X58.2 Y100.2 E38.01098
G0 F6000 X58.5 Y100.2
G0 X60.177 Y100.384
G0 X78.4 Y101.4
;TYPE:WALL-INNER
G1 F1200 X78.4 Y93.6 E38.27041
G1 X76.9 Y93.6 E38.3203
G1 X76.9 Y92.4 E38.36021
G1 X78.4 Y92.4 E38.4101
G1 X78.4 Y84.6 E38.66953
G1 X59.6 Y84.6 E39.29482
G1 X59.6 Y92.4 E39.42486
G1 X61.1 Y92.4 E39.47475
G1 X61.1 Y93.6 E39.51467
G1 X59.6 Y93.6 E39.56456
G1 X59.6 Y101.4 E39.6946
G1 X78.4 Y101.4 E40.31989
G0 F6000 X78 Y101
G1 F1200 X78 Y94 E40.55271
G1 X76.5 Y94 E40.6026
G1 X76.5 Y92 E40.66912
G1 X78 Y92 E40.71901
G1 X78 Y85 E40.95183
G1 X60 Y85 E41.55051
G1 X60 Y92 E41.78333
G1 X61.5 Y92 E41.83322
G1 X61.5 Y94 E41.89974
G1 X60 Y94 E41.94963
G1 X60 Y101 E42.18245
G1 X78 Y101 E42.78114
G0 F6000 X77.6 Y100.6
G1 F1200 X77.6 Y94.4 E42.98735
G1 X76.1 Y94.4 E43.03724
G1 X76.1 Y91.6 E43.13037
G1 X77.6 Y91.6 E43.18026
G1 X77.6 Y85.4 E43.38647
G1 X60.4 Y85.4 E43.95855
G1 X60.4 Y91.6 E44.16476
G1 X61.9 Y91.6 E44.21465
G1 X61.9 Y94.4 E44.30778
G1 X60.4 Y94.4 E44.35767
G1 X60.4 Y100.6 E44.56388
G1 X77.6 Y100.6 E45.13595
G0 F6000 X77.2 Y100.2
;TYPE:WALL-OUTER
G1 F1200 X77.2 Y94.8 E45.31556
G1 X75.7 Y94.8 E45.36545
G1 X75.7 Y91.2 E45.48519
G1 X77.2 Y91.2 E45.53508
G1 X77.2 Y85.8 E45.71468
G1 X60.8 Y85.8 E46.26015
G1 X60.8 Y91.2 E46.43975
G1 X62.3 Y91.2 E46.48964
G1 X62.3 Y94.8 E46.60938
G1 X60.8 Y94.8 E46.65927
G1 X60.8 Y100.2 E46.83887
G1 X77.2 Y100.2 E47.38434
G0 F6000 X77.5 Y100.2
G0 X79.177 Y100.384
G0 X97.4 Y101.4
;TYPE:WALL-INNER
G1 F1200 X97.4 Y93.6 E47.64377
G1 X95.9 Y93.6 E47.69366
G1 X95.9 Y92.4 E47.73357
G1 X97.4 Y92.4 E47.78346
G1 X97.4 Y84.6 E48.04289
G1 X78.6 Y84.6 E48.66818
G1 X78.6 Y92.4 E48.79822
G1 X80.1 Y92.4 E48.84811
G1 X80.1 Y93.6 E48.88802
G1 X78.6 Y93.6 E48.93791
G1 X78.6 Y101.4 E49.06795
G1 X97.4 Y101.4 E49.69324
G0 F6000 X97 Y101
G1 F1200 X97 Y94 E49.92606
G1 X95.5 Y94 E49.97595
G1 X95.5 Y92 E50.04247
G1 X97 Y92 E50.09236
G1 X97 Y85 E50.32519
G1 X79 Y85 E50.92387
G1 X79 Y92 E51.15669
G1 X80.5 Y92 E51.20658
G1 X80.5 Y94 E51.2731
G1 X79 Y94 E51.32299
G1 X79 Y101 E51.55581
G1 X97 Y101 E52.15449
G0 F6000 X96.6 Y100.6
G1 F1200 X96.6 Y94.4 E52.36071
G1 X95.1 Y94.4 E52.4106
G1 X95.1 Y91.6 E52.50372
G1 X96.6 Y91.6 E52.55361
G1 X96.6 Y85.4 E52.75983
G1 X79.4 Y85.4 E53.3319
G1 X79.4 Y91.6 E53.53811
G1 X80.9 Y91.6 E53.588
G1 X80.9 Y94.4 E53.68113
G1 X79.4 Y94.4 E53.73102
G1 X79.4 Y100.6 E53.93724
G1 X96.6 Y100.6 E54.50931
G0 F6000 X96.2 Y100.2
;TYPE:WALL-OUTER
G1 F1200 X96.2 Y94.8 E54.68891
G1 X94.7 Y94.8 E54.73881
G1 X94.7 Y91.2 E54.85854
G1 X96.2 Y91.2 E54.90843
G1 X96.2 Y85.8 E55.08804
G1 X79.8 Y85.8 E55.6335
G1 X79.8 Y91.2 E55.81311
G1 X81.3 Y91.2 E55.863
G1 X81.3 Y94.8 E55.98273
G1 X79.8 Y94.8 E56.03262
G1 X79.8 Y100.2 E56.21223
G1 X96.2 Y100.2 E56.7577
G1 F1500 E50.2577
G0 F6000 X96.5 Y100.2
G0 X97.582 Y93.418
G0 X96.082 Y93.418
G0 X96.082 Y92.582
G0 X97.582 Y92.582
G0 X97.581 Y84.579
G0 X97.917 Y84.555
G0 X97.918 Y111.418
G0 X96.428 Y118.428
G0 X98.918 Y119.582
G0 X98.918 Y120.418
G0 X96.428 Y127.428
G0 X94.928 Y130.572
G0 X96.428 Y130.572
G0 X98.918 Y137.582
G0 X98.918 Y138.418
G0 X79.572 Y139.572
G0 X79.572 Y145.428
G0 X81.072 Y148.572
G0 X79.572 Y148.572
G0 X78.918 Y173.418
G0 X78.4 Y173.4
;TYPE:WALL-INNER
G1 F1500 E56.7577
G1 F1200 X78.4 Y165.6 E57.01712
G1 X76.9 Y165.6 E57.06701
G1 X76.9 Y164.4 E57.10693
G1 X78.4 Y164.4 E57.15682
G1 X78.4 Y156.6 E57.41625
G1 X59.6 Y156.6 E58.04154
G1 X59.6 Y164.4 E58.30097
G1 X61.1 Y164.4 E58.35086
G1 X61.1 Y165.6 E58.39077
G1 X59.6 Y165.6 E58.44066
G1 X59.6 Y173.4 E58.70009
G1 X78.4 Y173.4 E59.32538
G0 F6000 X78 Y173
G1 F1200 X78 Y166 E59.5582
G1 X76.5 Y166 E59.60809
G1 X76.5 Y164 E59.67461
G1 X78 Y164 E59.7245
G1 X78 Y157 E59.95732
G1 X60 Y157 E60.556
G1 X60 Y164 E60.78882
G1 X61.5 Y164 E60.83871
G1 X61.5 Y166 E60.90523
G1 X60 Y166 E60.95512
G1 X60 Y173 E61.18795
G1 X78 Y173 E61.78663
G0 F6000 X77.6 Y172.6
G1 F1200 X77.6 Y166.4 E61.99284
G1 X76.1 Y166.4 E62.04273
G1 X76.1 Y163.6 E62.13586
G1 X77.6 Y163.6 E62.18575
G1 X77.6 Y157.4 E62.39196
G1 X60.4 Y157.4 E62.96404
G1 X60.4 Y163.6 E63.17025
G1 X61.9 Y163.6 E63.22014
G1 X61.9 Y166.4 E63.31327
G1 X60.4 Y166.4 E63.36316
G1 X60.4 Y172.6 E63.56937
G1 X77.6 Y172.6 E64.14145
G0 F6000 X77.2 Y172.2
;TYPE:WALL-OUTER
G1 F1200 X77.2 Y166.8 E64.32105
G1 X75.7 Y166.8 E64.37094
G1 X75.7 Y163.2 E64.49068
G1 X77.2 Y163.2 E64.54057
G1 X77.2 Y157.8 E64.72017
G1 X60.8 Y157.8 E65.26564
G1 X60.8 Y163.2 E65.44524
G1 X62.3 Y163.2 E65.49513
G1 X62.3 Y166.8 E65.61487
G1 X60.8 Y166.8 E65.66476
G1 X60.8 Y172.2 E65.84436
G1 X77.2 Y172.2 E66.38983
G0 F6000 X77.5 Y172.2
G0 X59.4 Y173.4
;TYPE:WALL-INNER
G1 F1200 X59.4 Y165.6 E66.51987
G1 X57.9 Y165.6 E66.56976
G1 X57.9 Y164.4 E66.60967
G1 X59.4 Y164.4 E66.65956
G1 X59.4 Y156.6 E66.7896
G1 X40.6 Y156.6 E67.41489
G1 X40.6 Y164.4 E67.67432
G1 X42.1 Y164.4 E67.72421
G1 X42.1 Y165.6 E67.76412
G1 X40.6 Y165.6 E67.81401
G1 X40.6 Y173.4 E68.07344
G1 X59.4 Y173.4 E68.69873
G0 F6000 X59 Y173
G1 F1200 X59 Y166 E68.93155
G1 X57.5 Y166 E68.98145
G1 X57.5 Y164 E69.04797
G1 X59 Y164 E69.09786
G1 X59 Y157 E69.33068
G1 X41 Y157 E69.92936
G1 X41 Y164 E70.16218
G1 X42.5 Y164 E70.21207
G1 X42.5 Y166 E70.27859
G1 X41 Y166 E70.32848
G1 X41 Y173 E70.5613
G1 X59 Y173 E71.15998
G0 F6000 X58.6 Y172.6
G1 F1200 X58.6 Y166.4 E71.3662
G1 X57.1 Y166.4 E71.41609
G1 X57.1 Y163.6 E71.50922
G1 X58.6 Y163.6 E71.55911
G1 X58.6 Y157.4 E71.76532
G1 X41.4 Y157.4 E72.33739
G1 X41.4 Y163.6 E72.54361
G1 X42.9 Y163.6 E72.5935
G1 X42.9 Y166.4 E72.68662
G1 X41.4 Y166.4 E72.73651
G1 X41.4 Y172.6 E72.94273
G1 X58.6 Y172.6 E73.5148
G0 F6000 X58.2 Y172.2
;TYPE:WALL-OUTER
G1 F1200 X58.2 Y166.8 E73.69441
G1 X56.7 Y166.8 E73.7443
G1 X56.7 Y163.2 E73.86403
G1 X58.2 Y163.2 E73.91392
G1 X58.2 Y157.8 E74.09353
G1 X41.8 Y157.8 E74.63899
G1 X41.8 Y163.2 E74.8186
G1 X43.3 Y163.2 E74.86849
G1 X43.3 Y166.8 E74.98823
G1 X41.8 Y166.8 E75.03812
G1 X41.8 Y172.2 E75.21772
G1 X58.2 Y172.2 E75.76319
G1 F1500 E69.26319
G0 F6000 X58.5 Y172.2
G0 X58.523 Y165.423
G0 X58.082 Y165.418
G0 X58.082 Y164.582
G0 X58.908 Y164.568
G0 X59.344 Y156.429
G0 X78.582 Y156.418
G0 X78.582 Y164.582
G0 X77.082 Y164.582
G0 X77.082 Y165.418
G0 X78.582 Y165.418
G0 X78.582 Y173.418
G0 X78.918 Y173.418
G0 X78.918 Y155.582
G0 X59.4 Y155.4
;TYPE:WALL-INNER
G1 F1500 E75.76319
G1 F1200 X59.4 Y147.6 E76.02262
G1 X57.9 Y147.6 E76.07251
G1 X57.9 Y146.4 E76.11242
G1 X59.4 Y146.4 E76.16231
G1 X59.4 Y138.6 E76.42174
G1 X40.6 Y138.6 E77.04703
G1 X40.6 Y146.4 E77.30646
G1 X42.1 Y146.4 E77.35635
G1 X42.1 Y147.6 E77.39626
G1 X40.6 Y147.6 E77.44615
G1 X40.6 Y155.4 E77.70558
G1 X59.4 Y155.4 E78.33087
G0 F6000 X59 Y155
G1 F1200 X59 Y148 E78.56369
G1 X57.5 Y148 E78.61358
G1 X57.5 Y146 E78.6801
G1 X59 Y146 E78.72999
G1 X59 Y139 E78.96281
G1 X41 Y139 E79.56149
G1 X41 Y146 E79.79431
G1 X42.5 Y146 E79.84421
G1 X42.5 Y148 E79.91073
G1 X41 Y148 E79.96062
G1 X41 Y155 E80.19344
G1 X59 Y155 E80.79212
G0 F6000 X58.6 Y154.6
G1 F1200 X58.6 Y148.4 E80.99833
G1 X57.1 Y148.4 E81.04822
G1 X57.1 Y145.6 E81.14135
G1 X58.6 Y145.6 E81.19124
G1 X58.6 Y139.4 E81.39745
G1 X41.4 Y139.4 E81.96953
G1 X41.4 Y145.6 E82.17574
G1 X42.9 Y145.6 E82.22563
G1 X42.9 Y148.4 E82.31876
G1 X41.4 Y148.4 E82.36865
G1 X41.4 Y154.6 E82.57486
G1 X58.6 Y154.6 E83.14694
G0 F6000 X58.2 Y154.2
;TYPE:WALL-OUTER
G1 F1200 X58.2 Y148.8 E83.32654
G1 X56.7 Y148.8 E83.37643
G1 X56.7 Y145.2 E83.49617
G1 X58.2 Y145.2 E83.54606
G1 X58.2 Y139.8 E83.72566
G1 X41.8 Y139.8 E84.27113
G1 X41.8 Y145.2 E84.45073
G1 X43.3 Y145.2 E84.50062
G1 X43.3 Y148.8 E84.62036
G1 X41.8 Y148.8 E84.67025
G1 X41.8 Y154.2 E84.84986
G1 X58.2 Y154.2 E85.39532
G0 F6000 X58.5 Y154.2
G0 X60.177 Y154.384
G0 X78.4 Y155.4
;TYPE:WALL-INNER
G1 F1200 X78.4 Y147.6 E85.65475
G1 X76.9 Y147.6 E85.70464
G1 X76.9 Y146.4 E85.74455
G1 X78.4 Y146.4 E85.79444
G1 X78.4 Y138.6 E86.05387
G1 X59.6 Y138.6 E86.67916
G1 X59.6 Y146.4 E86.8092
G1 X61.1 Y146.4 E86.85909
G1 X61.1 Y147.6 E86.899
G1 X59.6 Y147.6 E86.9489
G1 X59.6 Y155.4 E87.07893
G1 X78.4 Y155.4 E87.70423
G0 F6000 X78 Y155
G1 F1200 X78 Y148 E87.93705
G1 X76.5 Y148 E87.98694
G1 X76.5 Y146 E88.05346
G1 X78 Y146 E88.10335
G1 X78 Y139 E88.33617
G1 X60 Y139 E88.93485
G1 X60 Y146 E89.16767
G1 X61.5 Y146 E89.21756
G1 X61.5 Y148 E89.28408
G1 X60 Y148 E89.33397
G1 X60 Y155 E89.56679
G1 X78 Y155 E90.16548
G0 F6000 X77.6 Y154.6
G1 F1200 X77.6 Y148.4 E90.37169
G1 X76.1 Y148.4 E90.42158
G1 X76.1 Y145.6 E90.51471
G1 X77.6 Y145.6 E90.5646
G1 X77.6 Y139.4 E90.77081
G1 X60.4 Y139.4 E91.34288
G1 X60.4 Y145.6 E91.5491
G1 X61.9 Y145.6 E91.59899
G1 X61.9 Y148.4 E91.69212
G1 X60.4 Y148.4 E91.74201
G1 X60.4 Y154.6 E91.94822
G1 X77.6 Y154.6 E92.52029
G0 F6000 X77.2 Y154.2
;TYPE:WALL-OUTER
G1 F1200 X77.2 Y148.8 E92.6999
G1 X75.7 Y148.8 E92.74979
G1 X75.7 Y145.2 E92.86952
G1 X77.2 Y145.2 E92.91941
G1 X77.2 Y139.8 E93.09902
G1 X60.8 Y139.8 E93.64449
G1 X60.8 Y145.2 E93.82409
G1 X62.3 Y145.2 E93.87398
G1 X62.3 Y148.8 E93.99372
G1 X60.8 Y148.8 E94.04361
G1 X60.8 Y154.2 E94.22321
G1 X77.2 Y154.2 E94.76868
G0 F6000 X77.5 Y154.2
G0 X79.177 Y154.384
G0 X96.9 Y155.4
;TYPE:WALL-INNER
G1 F1200 X97.4 Y155.4 E94.78531
G1 X97.4 Y147.6 E95.04474
G1 X95.9 Y147.6 E95.09463
G1 X95.9 Y146.4 E95.13454
G1 X97.4 Y146.4 E95.18443
G1 X97.4 Y138.6 E95.44386
G1 X78.6 Y138.6 E96.06915
G1 X78.6 Y146.4 E96.19919
G1 X80.1 Y146.4 E96.24908
G1 X80.1 Y147.6 E96.28899
G1 X78.6 Y147.6 E96.33888
G1 X78.6 Y155.4 E96.46892
G1 X79.1 Y155.4 E96.48555
G1 X96.9 Y155.4 E97.07758
G0 F6000 X97 Y155
